packages/core/src/svgs/neuroni.svg

<svg width="24" height="24" viewBox="0 0 24 24" fill="none" xmlns="http://www.w3.org/2000/svg">
<g clip-path="url(#clip0_31_14717)">
<path d="M0 0H24V24H0V0Z" fill="#F0F3FA"/>
<path fill-rule="evenodd" clip-rule="evenodd" d="M13.6585 4.28564L12 5.2285L10.3414 4.28564L8.50282 5.30564V6.1885L6.84425 7.0885V9.0385L5.14282 9.98564V14.0014L6.84425 14.9442V16.8728L8.50282 17.7985V18.7199L10.3414 19.7142L12 18.7799L13.6585 19.7142L15.4971 18.7156V17.7942L17.1557 16.8685V14.9399L18.8571 13.9971V9.98564L17.1557 9.04279V7.09279L15.4971 6.1885V5.30564L13.6585 4.28564ZM11.8585 5.45136L10.3371 4.58993L8.77282 5.45993V6.1885L10.4743 7.0885V9.01707C10.5995 9.05682 10.7064 9.14021 10.7753 9.25208C10.8443 9.36395 10.8708 9.49686 10.85 9.62663C10.8293 9.7564 10.7626 9.8744 10.6622 9.95917C10.5618 10.0439 10.4342 10.0898 10.3028 10.0885C10.0028 10.0885 9.75425 9.84422 9.75425 9.54422C9.75425 9.27422 9.94711 9.05136 10.2043 9.00422V7.24707L8.77282 6.4885V7.60279C8.8966 7.6412 9.00294 7.72188 9.07329 7.83073C9.14363 7.93957 9.1735 8.06967 9.15767 8.1983C9.14185 8.32693 9.08134 8.44591 8.98672 8.53447C8.89209 8.62302 8.76936 8.67552 8.63997 8.68279C8.33139 8.68279 8.08282 8.4385 8.08282 8.1385C8.08282 7.88136 8.26282 7.66707 8.50282 7.60279V6.4885L7.10997 7.24707V9.04279L8.77282 9.98564V13.9971L7.10997 14.9399V16.7142L8.50282 17.4856V16.4056C8.38272 16.3767 8.2759 16.308 8.19968 16.2108C8.12345 16.1136 8.08228 15.9935 8.08282 15.8699C8.08282 15.5699 8.33139 15.3214 8.63997 15.3214C8.93997 15.3214 9.19282 15.5699 9.19282 15.8699C9.19282 16.1271 9.01282 16.3414 8.77282 16.4056V17.4899L10.2 16.7142V14.9785C10.0759 14.9538 9.96419 14.887 9.88374 14.7893C9.8033 14.6917 9.75907 14.5693 9.75854 14.4428C9.75854 14.1385 10.0071 13.8942 10.3114 13.8942C10.6157 13.8942 10.8643 14.1385 10.8643 14.4428C10.8643 14.6914 10.6971 14.9014 10.47 14.9656V16.8685L8.76854 17.7942V18.5614L10.3328 19.4099L11.8543 18.5528V13.9371H12.12V18.5485L13.6585 19.4142L15.2228 18.5656V17.7942L13.5214 16.8728V14.9699C13.4082 14.9368 13.3087 14.868 13.2377 14.7738C13.1666 14.6796 13.1279 14.565 13.1271 14.4471C13.1271 14.1428 13.3757 13.8985 13.6843 13.8985C13.9843 13.8985 14.2328 14.1428 14.2328 14.4471C14.2328 14.7128 14.0443 14.9314 13.7914 14.9828V16.7142L15.2228 17.4899V16.4056C15.1027 16.3767 14.9959 16.308 14.9197 16.2108C14.8435 16.1136 14.8023 15.9935 14.8028 15.8699C14.8028 15.5699 15.0514 15.3214 15.36 15.3214C15.66 15.3214 15.9128 15.5699 15.9128 15.8699C15.9128 16.1271 15.7328 16.3414 15.4928 16.4056V17.4899L16.8857 16.7142V14.9399L15.2228 13.9971V9.98564L16.8857 9.04279V7.24279L15.4928 6.48422V7.5985C15.6166 7.63692 15.7229 7.71759 15.7933 7.82644C15.8636 7.93529 15.8935 8.06539 15.8777 8.19402C15.8619 8.32265 15.8013 8.44163 15.7067 8.53018C15.6121 8.61874 15.4894 8.67123 15.36 8.6785C15.0514 8.6785 14.8028 8.43422 14.8028 8.13422C14.8028 7.87707 14.9828 7.66279 15.2228 7.5985V6.48422L13.8 7.24279V8.99993C14.0571 9.04279 14.25 9.26993 14.25 9.53993C14.25 9.83993 14.0014 10.0885 13.6971 10.0885C13.3928 10.0885 13.1443 9.83993 13.1443 9.53993C13.1443 9.29136 13.3071 9.08564 13.53 9.01279V7.08422L15.2314 6.18422V5.45564L13.6671 4.58564L12.1243 5.45993V10.0714H11.8628V5.45136H11.8585ZM17.0228 9.26993L18.5914 10.1399V11.9142L17.4643 12.5571C17.3894 12.475 17.2918 12.4172 17.1838 12.391C17.0759 12.3649 16.9626 12.3716 16.8585 12.4103C16.7544 12.449 16.6642 12.5179 16.5996 12.6082C16.5349 12.6985 16.4988 12.8061 16.4957 12.9171C16.4957 13.2214 16.74 13.4699 17.0485 13.4699C17.1314 13.47 17.2131 13.4514 17.2878 13.4156C17.3625 13.3798 17.4282 13.3277 17.48 13.2631C17.5319 13.1985 17.5685 13.1231 17.5873 13.0424C17.6061 12.9618 17.6065 12.8779 17.5885 12.7971L18.5914 12.2185V13.8428L17.0228 14.7085L15.4971 13.8428V12.0642L16.6457 11.3785C16.7226 11.4573 16.8211 11.5115 16.9288 11.5343C17.0365 11.5571 17.1486 11.5475 17.2508 11.5067C17.3531 11.4659 17.4409 11.3957 17.5033 11.305C17.5657 11.2143 17.5999 11.1072 17.6014 10.9971C17.6014 10.6971 17.3528 10.4485 17.0443 10.4485C16.9594 10.4488 16.8757 10.4686 16.7997 10.5064C16.7238 10.5443 16.6575 10.5991 16.6061 10.6666C16.5547 10.7342 16.5196 10.8126 16.5034 10.896C16.4872 10.9793 16.4905 11.0652 16.5128 11.1471L15.4971 11.7556V10.1399L17.0228 9.26993ZM5.40854 10.1399L6.97711 9.26993L8.50282 10.1399V11.7556L7.48711 11.1471C7.49996 11.0999 7.50425 11.0485 7.50425 10.9971C7.50425 10.6971 7.25996 10.4485 6.95139 10.4485C6.64711 10.4485 6.39854 10.6971 6.39854 10.9971C6.39854 11.3014 6.64711 11.5456 6.95568 11.5456C7.10996 11.5456 7.25568 11.4814 7.35425 11.3742L8.50282 12.0642V13.8428L6.97711 14.7085L5.40854 13.8428V12.2142L6.41139 12.7928C6.39256 12.8737 6.39236 12.9579 6.41081 13.0389C6.42925 13.1199 6.46586 13.1957 6.51786 13.2605C6.56987 13.3253 6.63591 13.3774 6.71102 13.4129C6.78612 13.4485 6.86831 13.4665 6.95139 13.4656C7.02919 13.4754 7.10817 13.4685 7.18308 13.4454C7.258 13.4222 7.32715 13.3835 7.38593 13.3316C7.44471 13.2797 7.49179 13.2159 7.52404 13.1444C7.55628 13.073 7.57296 12.9955 7.57296 12.9171C7.57296 12.8387 7.55628 12.7612 7.52404 12.6897C7.49179 12.6182 7.44471 12.5544 7.38593 12.5026C7.32715 12.4507 7.258 12.4119 7.18308 12.3888C7.10817 12.3657 7.02919 12.3588 6.95139 12.3685C6.78425 12.3685 6.63425 12.4414 6.53568 12.5571L5.40854 11.9099V10.1356V10.1399ZM10.2857 13.2856V10.7142L13.2857 12.4585V10.7142H13.7143V13.2856L10.7143 11.5585V13.2856H10.2857Z" fill="url(#paint0_linear_31_14717)"/>
</g>
<defs>
<linearGradient id="paint0_linear_31_14717" x1="5.14282" y1="11.4171" x2="19.5" y2="11.5371" gradientUnits="userSpaceOnUse">
<stop stop-color="#350B69"/>
<stop offset="0.81" stop-color="#329FB3"/>
<stop offset="1" stop-color="#83D3D7"/>
</linearGradient>
<clipPath id="clip0_31_14717">
<rect width="24" height="24" fill="white"/>
</clipPath>
</defs>
</svg>

<svg xmlns="http://www.w3.org/2000/svg" width="24" height="24" fill="none" viewBox="0 0 24 24"><g clip-path="url(#a)"><path fill="#F0F3FA" d="M0 0h24v24H0z"/><path fill="url(#b)" fill-rule="evenodd" d="M13.659 4.286 12 5.229l-1.659-.943-1.838 1.02v.883l-1.659.9v1.95l-1.701.947V14l1.701.943v1.929l1.659.925v.922l1.838.994L12 18.78l1.659.934 1.838-.998v-.922l1.659-.925v-1.93l1.701-.942V9.986l-1.701-.943v-1.95l-1.659-.904v-.883zm-1.8 1.165-1.522-.861-1.564.87v.729l1.701.9v1.928a.548.548 0 0 1-.171 1.072.55.55 0 0 1-.549-.545c0-.27.193-.493.45-.54V7.247L8.773 6.49v1.114a.553.553 0 0 1-.133 1.08.55.55 0 0 1-.557-.544.56.56 0 0 1 .42-.536V6.489l-1.393.758v1.796l1.663.943v4.011l-1.663.943v1.774l1.393.772v-1.08a.55.55 0 0 1-.42-.536.554.554 0 0 1 1.11 0 .56.56 0 0 1-.42.536v1.084l1.427-.776V14.98a.548.548 0 0 1 .111-1.085.55.55 0 0 1 .553.549.544.544 0 0 1-.394.523v1.903l-1.701.925v.767l1.564.849 1.521-.857v-4.616h.266v4.612l1.539.865 1.564-.848v-.772l-1.702-.921V14.97a.55.55 0 0 1-.394-.523c0-.304.249-.548.557-.548a.547.547 0 0 1 .107 1.084v1.731l1.432.776v-1.084a.55.55 0 0 1-.42-.536.554.554 0 0 1 1.11 0 .56.56 0 0 1-.42.536v1.084l1.393-.776V14.94l-1.663-.943V9.986l1.663-.943v-1.8l-1.393-.759v1.114a.553.553 0 0 1-.133 1.08.55.55 0 0 1-.557-.544.56.56 0 0 1 .42-.536V6.485l-1.423.759V9c.257.043.45.27.45.54a.553.553 0 0 1-1.106 0c0-.249.163-.454.386-.527V7.084l1.701-.9v-.728l-1.564-.87-1.543.874v4.611h-.261v-4.62zm5.164 3.819 1.568.87v1.774l-1.127.643a.557.557 0 0 0-.968.36.551.551 0 0 0 .984.346.55.55 0 0 0 .108-.466l1.003-.578v1.624l-1.568.866-1.526-.866v-1.779l1.149-.685a.557.557 0 0 0 .955-.382.554.554 0 1 0-1.088.15l-1.016.609V10.14zm-11.614.87 1.568-.87 1.526.87v1.616l-1.016-.609a.6.6 0 0 0 .017-.15.553.553 0 0 0-1.106 0c0 .304.25.549.558.549.154 0 .3-.065.398-.172l1.149.69v1.779l-1.526.866-1.568-.866v-1.629l1.002.579a.55.55 0 0 0 .54.673.552.552 0 1 0 0-1.098.54.54 0 0 0-.415.19l-1.127-.648v-1.774zm4.877 3.146v-2.572l3 1.745v-1.745h.428v2.572l-3-1.727v1.727z" clip-rule="evenodd"/></g><defs><linearGradient id="b" x1="5.143" x2="19.5" y1="11.417" y2="11.537" gradientUnits="userSpaceOnUse"><stop stop-color="#350B69"/><stop offset=".81" stop-color="#329FB3"/><stop offset="1" stop-color="#83D3D7"/></linearGradient><clipPath id="a"><path fill="#fff" d="M0 0h24v24H0z"/></clipPath></defs></svg>
